svg/s/TL.svg

<svg width="16" height="12" viewBox="0 0 16 12" fill="none" xmlns="http://www.w3.org/2000/svg">
<mask id="mask0" mask-type="alpha" maskUnits="userSpaceOnUse" x="0" y="0" width="16" height="12">
<rect width="16" height="12" fill="white"/>
</mask>
<g mask="url(#mask0)">
<path d="M0 -0.5H-0.5V0V12V12.5H0H16H16.5V12V0V-0.5H16H0Z" fill="#E31D1C" stroke="#F7FCFF"/>
<path fill-rule="evenodd" clip-rule="evenodd" d="M0 0L12 6L0 12V0Z" fill="#FECA00"/>
<path fill-rule="evenodd" clip-rule="evenodd" d="M0 0L8 6L0 12V0Z" fill="#272727"/>
<path fill-rule="evenodd" clip-rule="evenodd" d="M3.32393 7.20422L2.31417 8.25423L2.20869 6.76149L0.920953 5.96822L2.26389 5.54683L2.48351 4.06775L3.41325 5.23886L4.76927 4.87552L4.06839 6.26318L4.74996 7.60156L3.32393 7.20422Z" fill="#F7FCFF"/>
</g>
</svg>

<svg width="16" height="12" fill="none" xmlns="http://www.w3.org/2000/svg">
  <mask id="a" maskUnits="userSpaceOnUse" x="0" y="0" width="16" height="12">
    <path fill="#fff" d="M0 0h16v12H0z"/>
  </mask>
  <g mask="url(#a)">
    <path d="M0-.5h-.5v13h17v-13H0z" fill="#E31D1C" stroke="#F7FCFF"/>
    <path fill-rule="evenodd" clip-rule="evenodd" d="M0 0l12 6-12 6V0z" fill="#FECA00"/>
    <path fill-rule="evenodd" clip-rule="evenodd" d="M0 0l8 6-8 6V0z" fill="#272727"/>
    <path fill-rule="evenodd" clip-rule="evenodd" d="M3.324 7.204l-1.01 1.05-.105-1.492L.92 5.968l1.343-.421.22-1.48.93 1.172 1.355-.363-.7 1.387.681 1.339-1.426-.398z" fill="#F7FCFF"/>
  </g>
</svg>
